svgs/sharp-light/clarinet.svg

<svg xmlns="http://www.w3.org/2000/svg" viewBox="0 0 640 512"><!--! Font Awesome Pro 6.6.0 by @fontawesome - https://fontawesome.com License - https://fontawesome.com/license (Commercial License) Copyright 2024 Fonticons, Inc. --><path d="M224 96l16 0 32 0 96 0 96 0 32 0 16 0 0 32-16 0-16 0 0 32 57.8 0L608 121l32-17.8 0 36.6 0 232.4 0 36.6L608 391l-70.2-39-437.3 0L0 321.9 0 190.1 100.5 160 256 160l0-32-16 0-16 0 0-32zm224 96s0 0 0 0l-64 0s0 0 0 0l-32 0s0 0 0 0l-64 0s0 0 0 0l-32 0s0 0 0 0l-150.8 0L32 214 32 298l73.2 22 432.6 0 8.3 0 7.2 4L608 354.4l0-196.8L553.3 188l-7.2 4-8.3 0L480 192s0 0 0 0l-32 0zm0-64l-64 0 0 32 64 0 0-32zm-96 0l-64 0 0 32 64 0 0-32zM272 232a24 24 0 1 1 0 48 24 24 0 1 1 0-48zm72 24a24 24 0 1 1 48 0 24 24 0 1 1 -48 0zm120-24a24 24 0 1 1 0 48 24 24 0 1 1 0-48z"/></svg>

<svg xmlns="http://www.w3.org/2000/svg" viewBox="0 0 640 512"><!--! Font Awesome Pro 6.4.2 by @fontawesome - https://fontawesome.com License - https://fontawesome.com/license (Commercial License) Copyright 2023 Fonticons, Inc. --><path d="M224 96h16 32 96 96 32 16v32H496 480v32h57.8L608 121l32-17.8v36.6V372.2v36.6L608 391l-70.2-39H100.5L0 321.9V190.1L100.5 160H256V128H240 224V96zm224 96v0H384v0H352v0H288v0H256v0H105.2L32 214V298l73.2 22H537.8h8.3l7.2 4L608 354.4V157.6L553.3 188l-7.2 4h-8.3H480v0H448zm0-64H384v32h64V128zm-96 0H288v32h64V128zM272 232a24 24 0 1 1 0 48 24 24 0 1 1 0-48zm72 24a24 24 0 1 1 48 0 24 24 0 1 1 -48 0zm120-24a24 24 0 1 1 0 48 24 24 0 1 1 0-48z"/></svg>
